X: 28924
T: Naanie An' Betty
R: reel
M: 4/4
K: Cmajor
|:EFGG AGGG|EGGG ECC2|D2EG A2AG|1 AcBd c2cD:|2 AcBd c2cd||
|:eAAc BGG2|e2ge de^fd|eAAc BGG2|1 AcBd c2cd:|2 AcBd c2cD||

